src/activities/sport/26BE.svg

<?xml version="1.0" encoding="UTF-8"?>
<svg id="emoji" xmlns="http://www.w3.org/2000/svg" viewBox="0 0 72 72">
  <g id="grid">
    <path d="m68,4v64H4V4h64m4-4H0v72h72V0Z" fill="#b3b3b3"/>
    <path d="m12.923,10.9583h46.1539c1.0621,0,1.9231.861,1.9231,1.9231h0v46.1538c0,1.0621-.861,1.9231-1.9231,1.9231H12.9231c-1.0621,0-1.9231-.861-1.9231-1.9231h0V12.8813c0-1.062.861-1.923,1.923-1.923h0Z" fill="none" stroke="#00a5ff" stroke-miterlimit="10" stroke-width=".1"/>
    <rect x="16" y="4" width="40" height="64" rx="2.2537" ry="2.2537" fill="none" stroke="#00a5ff" stroke-miterlimit="10" stroke-width=".1"/>
    <rect x="4" y="16" width="64" height="40" rx="2.2537" ry="2.2537" fill="none" stroke="#00a5ff" stroke-miterlimit="10" stroke-width=".1"/>
    <circle cx="36" cy="36" r="29" fill="none" stroke="#00a5ff" stroke-miterlimit="10" stroke-width=".1"/>
  </g>
  <g id="color">
    <circle cx="36" cy="35.9583" r="29" fill="#fff"/>
    <path d="m54.8295,55.7853c-5.2796-5.2522-6.8833-10.7914-6.8833-18.8269,0-8.0081,3.2459-15.2581,8.4939-20.5061" fill="none" stroke="#d0cfce" stroke-miterlimit="10" stroke-width="3"/>
    <path d="m15.5331,16.4522c5.248,5.248,8.4939,12.498,8.4939,20.5061,0,8.0287-2.409,14.4908-7.6808,19.7419" fill="none" stroke="#d0cfce" stroke-miterlimit="10" stroke-width="3"/>
    <path d="m50.738,10.9985c4.8254,5.1792,7.7822,12.1224,7.7822,19.7596,0,16.0162-12.9837,29-29,29-5.3519,0-10.3612-1.4558-14.6646-3.9839,5.2892,5.6453,12.7977,9.1841,21.1444,9.1841,16.0162,0,29-12.9838,29-29,0-10.6313-5.7308-19.9113-14.262-24.9598Z" fill="#d0cfce"/>
  </g>
  <g id="line">
    <circle cx="36" cy="35.9583" r="29" fill="none" stroke="#000" stroke-linecap="round" stroke-linejoin="round" stroke-width="2"/>
    <path d="m56.494,56.5182c-5.2796-5.2522-8.5478-12.5243-8.5478-20.5598,0-8.0081,3.2459-15.2581,8.4939-20.5061" fill="none" stroke="#000" stroke-linecap="round" stroke-linejoin="round" stroke-width="2"/>
    <path d="m15.5331,15.4522c5.248,5.248,8.4939,12.498,8.4939,20.5061,0,8.0287-3.2455,15.2768-8.5172,20.5279" fill="none" stroke="#000" stroke-linecap="round" stroke-linejoin="round" stroke-width="2"/>
    <polyline points="45.9462 35.4583 47.9462 36.4583 49.9462 35.4583" fill="none" stroke="#000" stroke-linecap="round" stroke-linejoin="round" stroke-width="2"/>
    <polyline points="26.0271 36.4583 24.027 35.4583 22.027 36.4583" fill="none" stroke="#000" stroke-linecap="round" stroke-linejoin="round" stroke-width="2"/>
    <polyline points="25.2025 43.3317 23.4241 41.9762 21.2726 42.5856" fill="none" stroke="#000" stroke-linecap="round" stroke-linejoin="round" stroke-width="2"/>
    <polyline points="23.0012 49.4547 21.523 47.7769 19.2938 47.9528" fill="none" stroke="#000" stroke-linecap="round" stroke-linejoin="round" stroke-width="2"/>
    <polyline points="19.5977 54.6466 18.8245 52.5484 16.6821 51.9081" fill="none" stroke="#000" stroke-linecap="round" stroke-linejoin="round" stroke-width="2"/>
    <polyline points="20.2695 17.7956 18.1198 18.411 17.3222 20.4999" fill="none" stroke="#000" stroke-linecap="round" stroke-linejoin="round" stroke-width="2"/>
    <polyline points="23.4875 23.5425 21.2891 23.6516 20.0026 25.5061" fill="none" stroke="#000" stroke-linecap="round" stroke-linejoin="round" stroke-width="2"/>
    <polyline points="25.4746 29.7549 23.27 29.3806 21.6479 30.9197" fill="none" stroke="#000" stroke-linecap="round" stroke-linejoin="round" stroke-width="2"/>
    <polyline points="46.7708 28.5842 48.5492 29.9397 50.7006 29.3303" fill="none" stroke="#000" stroke-linecap="round" stroke-linejoin="round" stroke-width="2"/>
    <polyline points="48.972 22.4611 50.4502 24.1389 52.6794 23.9631" fill="none" stroke="#000" stroke-linecap="round" stroke-linejoin="round" stroke-width="2"/>
    <polyline points="52.4993 17.1179 53.2724 19.216 55.4149 19.8564" fill="none" stroke="#000" stroke-linecap="round" stroke-linejoin="round" stroke-width="2"/>
    <polyline points="51.5447 53.912 53.6945 53.2967 54.4921 51.2077" fill="none" stroke="#000" stroke-linecap="round" stroke-linejoin="round" stroke-width="2"/>
    <polyline points="48.4822 48.4289 50.7156 48.3183 51.9671 46.4653" fill="none" stroke="#000" stroke-linecap="round" stroke-linejoin="round" stroke-width="2"/>
    <polyline points="46.4986 42.161 48.7032 42.5352 50.3253 40.9962" fill="none" stroke="#000" stroke-linecap="round" stroke-linejoin="round" stroke-width="2"/>
  </g>
</svg>

<svg id="emoji" viewBox="0 0 72 72" xmlns="http://www.w3.org/2000/svg">
  <g id="grid">
    <path fill="#b3b3b3" d="M68,4V68H4V4H68m4-4H0V72H72V0Z"/>
    <path fill="none" stroke="#00a5ff" stroke-miterlimit="10" stroke-width="0.1" d="M12.923,10.9583H59.0769A1.9231,1.9231,0,0,1,61,12.8814V59.0352a1.9231,1.9231,0,0,1-1.9231,1.9231H12.9231A1.9231,1.9231,0,0,1,11,59.0352V12.8813A1.923,1.923,0,0,1,12.923,10.9583Z"/>
    <rect x="16" y="4" rx="2.2537" width="40" height="64" fill="none" stroke="#00a5ff" stroke-miterlimit="10" stroke-width="0.1"/>
    <rect x="16" y="4" rx="2.2537" width="40" height="64" transform="translate(72) rotate(90)" fill="none" stroke="#00a5ff" stroke-miterlimit="10" stroke-width="0.1"/>
    <circle cx="36" cy="36" r="29" fill="none" stroke="#00a5ff" stroke-miterlimit="10" stroke-width="0.1"/>
  </g>
  <g id="color">
    <circle cx="36" cy="35.9583" r="29" fill="#FFFFFF" stroke="none"/>
    <path fill="none" stroke="#d0cfce" stroke-miterlimit="10" stroke-width="3" d="M56.494,57.5182 c-5.2796-5.2522-8.5478-12.5243-8.5478-20.5598c0-8.0081,3.2459-15.2581,8.4939-20.5061"/>
    <path fill="none" stroke="#d0cfce" stroke-miterlimit="10" stroke-width="3" d="M15.5331,16.4522 c5.248,5.248,8.4939,12.498,8.4939,20.5061c0,8.0287-3.2626,15.2954-8.5344,20.5465"/>
    <path fill="#D0CFCE" stroke="none" d="M50.738,10.9985c4.8254,5.1792,7.7822,12.1224,7.7822,19.7596c0,16.0162-12.9837,29-29,29 c-5.3519,0-10.3612-1.4558-14.6646-3.9839C20.1448,61.4195,27.6533,64.9583,36,64.9583c16.0162,0,29-12.9838,29-29 C65,25.327,59.2692,16.047,50.738,10.9985z"/>
  </g>
  <g id="hair"/>
  <g id="skin"/>
  <g id="skin-shadow"/>
  <g id="line">
    <circle cx="36" cy="35.9583" r="29" fill="none" stroke="#000000" stroke-linecap="round" stroke-linejoin="round" stroke-miterlimit="10" stroke-width="2"/>
    <path fill="none" stroke="#000000" stroke-linecap="round" stroke-linejoin="round" stroke-miterlimit="10" stroke-width="2" d="M56.494,56.5182c-5.2796-5.2522-8.5478-12.5243-8.5478-20.5598c0-8.0081,3.2459-15.2581,8.4939-20.5061"/>
    <path fill="none" stroke="#000000" stroke-linecap="round" stroke-linejoin="round" stroke-miterlimit="10" stroke-width="2" d="M15.5331,15.4522c5.248,5.248,8.4939,12.498,8.4939,20.5061c0,8.0287-3.2455,15.2768-8.5172,20.5279"/>
    <polyline fill="none" stroke="#000000" stroke-linecap="round" stroke-linejoin="round" stroke-miterlimit="10" stroke-width="2" points="45.9462,35.4583 47.9462,36.4583 49.9462,35.4583"/>
    <polyline fill="none" stroke="#000000" stroke-linecap="round" stroke-linejoin="round" stroke-miterlimit="10" stroke-width="2" points="26.0271,36.4583 24.027,35.4583 22.027,36.4583"/>
    <polyline fill="none" stroke="#000000" stroke-linecap="round" stroke-linejoin="round" stroke-miterlimit="10" stroke-width="2" points="25.2025,43.3317 23.4241,41.9762 21.2726,42.5856"/>
    <polyline fill="none" stroke="#000000" stroke-linecap="round" stroke-linejoin="round" stroke-miterlimit="10" stroke-width="2" points="23.0012,49.4547 21.523,47.7769 19.2938,47.9528"/>
    <polyline fill="none" stroke="#000000" stroke-linecap="round" stroke-linejoin="round" stroke-miterlimit="10" stroke-width="2" points="19.5977,54.6466 18.8245,52.5484 16.6821,51.9081"/>
    <polyline fill="none" stroke="#000000" stroke-linecap="round" stroke-linejoin="round" stroke-miterlimit="10" stroke-width="2" points="20.2695,17.7956 18.1198,18.411 17.3222,20.4999"/>
    <polyline fill="none" stroke="#000000" stroke-linecap="round" stroke-linejoin="round" stroke-miterlimit="10" stroke-width="2" points="23.4875,23.5425 21.2891,23.6516 20.0026,25.5061"/>
    <polyline fill="none" stroke="#000000" stroke-linecap="round" stroke-linejoin="round" stroke-miterlimit="10" stroke-width="2" points="25.4746,29.7549 23.27,29.3806 21.6479,30.9197"/>
    <polyline fill="none" stroke="#000000" stroke-linecap="round" stroke-linejoin="round" stroke-miterlimit="10" stroke-width="2" points="46.7708,28.5842 48.5492,29.9397 50.7006,29.3303"/>
    <polyline fill="none" stroke="#000000" stroke-linecap="round" stroke-linejoin="round" stroke-miterlimit="10" stroke-width="2" points="48.972,22.4611 50.4502,24.1389 52.6794,23.9631"/>
    <polyline fill="none" stroke="#000000" stroke-linecap="round" stroke-linejoin="round" stroke-miterlimit="10" stroke-width="2" points="52.4993,17.1179 53.2724,19.216 55.4149,19.8564"/>
    <polyline fill="none" stroke="#000000" stroke-linecap="round" stroke-linejoin="round" stroke-miterlimit="10" stroke-width="2" points="51.5447,53.912 53.6945,53.2967 54.4921,51.2077"/>
    <polyline fill="none" stroke="#000000" stroke-linecap="round" stroke-linejoin="round" stroke-miterlimit="10" stroke-width="2" points="48.4822,48.4289 50.7156,48.3183 51.9671,46.4653"/>
    <polyline fill="none" stroke="#000000" stroke-linecap="round" stroke-linejoin="round" stroke-miterlimit="10" stroke-width="2" points="46.4986,42.161 48.7032,42.5352 50.3253,40.9962"/>
  </g>
</svg>
